public/icon/token.svg

<svg width="27" height="27" viewBox="0 0 27 27" fill="none" xmlns="http://www.w3.org/2000/svg">
<path d="M13.5 0C6.05559 0 0 6.05641 0 13.5004C0 20.9445 6.05559 27 13.5 27C20.944 27 27 20.9445 27 13.5004C27 6.05641 20.9441 0 13.5 0ZM13.5 24.8705C7.23007 24.8705 2.12939 19.7699 2.12939 13.5004C2.12939 7.23007 7.23007 2.12939 13.5 2.12939C19.7699 2.12939 24.8706 7.23007 24.8706 13.5004C24.8706 19.7699 19.7699 24.8705 13.5 24.8705Z" fill="white" fill-opacity="0.5"/>
<path d="M11.3651 10.8546C11.3651 10.0005 12.6143 9.85467 13.6978 9.85467C14.7191 9.85467 16.1145 10.3333 17.2813 10.9382L17.51 8.58417C16.9265 8.25056 15.5728 7.85466 14.1978 7.77193L14.531 5.3761H12.302L12.6357 7.77193C9.76112 8.04235 8.82349 9.70875 8.82349 11.1046C8.82349 14.6249 15.3847 13.8758 15.3847 16.0413C15.3847 16.8545 14.6146 17.1454 13.2602 17.1454C11.4274 17.1454 10.0521 16.5003 9.34434 15.8332L8.98985 18.479C9.65706 18.8749 11.0103 19.229 12.6357 19.3126L12.302 21.6249H14.531L14.1978 19.2913C17.5723 18.9995 18.1764 17.2078 18.1764 16.0209C18.1765 11.8341 11.3651 12.875 11.3651 10.8546Z" fill="white" fill-opacity="0.5"/>
</svg>

<svg xmlns="http://www.w3.org/2000/svg" width="27" height="27" fill="none"><path fill="#87888D" d="M13.5 0C6.056 0 0 6.056 0 13.5 0 20.945 6.056 27 13.5 27S27 20.945 27 13.5C27 6.056 20.944 0 13.5 0Zm0 24.87c-6.27 0-11.37-5.1-11.37-11.37S7.23 2.13 13.5 2.13s11.37 5.1 11.37 11.37-5.1 11.37-11.37 11.37Z"/><path fill="#87888D" d="M11.365 10.855c0-.854 1.25-1 2.333-1 1.021 0 2.416.478 3.583 1.083l.229-2.354c-.584-.333-1.937-.73-3.312-.812l.333-2.396h-2.229l.334 2.396c-2.875.27-3.813 1.937-3.813 3.333 0 3.52 6.562 2.77 6.562 4.936 0 .814-.77 1.104-2.125 1.104-1.833 0-3.208-.645-3.916-1.312L8.99 18.48c.667.396 2.02.75 3.646.834l-.334 2.312h2.229l-.333-2.334c3.374-.291 3.978-2.083 3.978-3.27 0-4.187-6.81-3.146-6.81-5.166Z"/></svg>
